X:35
T:La Fricasse 1793
R:---
C:Tradition militaire
Q:1/2=100
I:abc2nwc
M:2/2
L:1/8
K:C
V:1
G2||c3d (edec)|f4f2(gf)|(fede) (fedc)|(dcBA) G3G|
c3d (edec)|f6(gf)|(fede) (fede)|c6|]
(ef)||g2g2f2e2|f6(ef)|g2g2f2e2|f6(ef)|
g2g2f2e2|f2g2a2g2|f2e2d2c2|(dcBA) G2|]
V:2
G2||c2G2c2G2|A2(cA) B4|c2Bc (AcBc)|(dcBA) G3G|
c2(G2c2^A2|A2)AB c2B2|c2(Gc) A2B2|c6|]
(cd)||e2G2A2c2|B2(GA) B2(cd)|e2G2A2c2|(BAGA) B2cd|
e2e2d2c2|d2e2f2e2|d2c2B2A2|(BcBA) G2|]
%%footer $D   Galouvielle-MBe 2007 \nRonde (--)
